public/figma-home/rectangle17411.svg

<svg xmlns="http://www.w3.org/2000/svg" fill="none" overflow="visible" preserveAspectRatio="none" style="display:block" viewBox="0 0 1887 666.379"><g filter="url(#a)"><path fill="var(--fill-0, #2863c3)" d="M225 281.303c0-34.78 31.371-61.148 65.632-55.166l462.088 80.682c3.181.556 6.403.835 9.632.835h348.918c3.15 0 6.29-.266 9.4-.795l475.93-81.045c34.19-5.822 65.4 20.521 65.4 55.206v104.342c0 34.336-30.62 60.586-64.55 55.344l-477.2-73.719a56 56 0 0 0-8.55-.657H761.908c-2.934 0-5.864.231-8.761.69l-463.386 73.4C255.763 445.805 225 419.531 225 385.109z"/><path stroke="var(--stroke-0, #3b38ff)" stroke-width="21" d="M1594.84 215.464c40.6-6.914 77.66 24.368 77.66 65.555v104.343c0 40.774-36.36 71.946-76.65 65.721l-477.2-73.719c-2.3-.355-4.62-.534-6.95-.534H761.907c-2.383 0-4.764.188-7.118.561L291.404 450.79c-40.373 6.395-76.904-24.805-76.904-65.681V281.303c0-41.301 37.253-72.613 77.938-65.509l462.088 80.681c2.585.452 5.203.679 7.827.679h348.917c2.56 0 5.11-.217 7.63-.646z"/></g><defs><filter id="a" width="1887" height="666.379" x="0" y="0" color-interpolation-filters="sRGB" filterUnits="userSpaceOnUse"><feFlood flood-opacity="0" result="BackgroundImageFix"/><feBlend in="SourceGraphic" in2="BackgroundImageFix" result="shape"/><feGaussianBlur result="effect1_foregroundBlur_0_625" stdDeviation="102"/></filter></defs></svg>

<svg preserveAspectRatio="none" width="100%" height="100%" overflow="visible" style="display: block;" viewBox="0 0 1887 666.379" fill="none" xmlns="http://www.w3.org/2000/svg">
<g id="Rectangle 17411" filter="url(#filter0_f_0_625)">
<path d="M225 281.303C225 246.523 256.371 220.155 290.632 226.137L752.72 306.819C755.901 307.375 759.123 307.654 762.352 307.654H1111.27C1114.42 307.654 1117.56 307.388 1120.67 306.859L1596.6 225.814C1630.79 219.992 1662 246.335 1662 281.02V385.362C1662 419.698 1631.38 445.948 1597.45 440.706L1120.25 366.987C1117.42 366.55 1114.56 366.33 1111.7 366.33H761.908C758.974 366.33 756.044 366.561 753.147 367.02L289.761 440.42C255.763 445.805 225 419.531 225 385.109V281.303Z" fill="var(--fill-0, #2863C3)"/>
<path d="M1594.84 215.464C1635.44 208.55 1672.5 239.832 1672.5 281.019V385.362C1672.5 426.136 1636.14 457.308 1595.85 451.083L1118.65 377.364C1116.35 377.009 1114.03 376.83 1111.7 376.83H761.907C759.524 376.83 757.143 377.018 754.789 377.391L291.404 450.79C251.031 457.185 214.5 425.985 214.5 385.109V281.303C214.5 240.002 251.753 208.69 292.438 215.794L754.526 296.475C757.111 296.927 759.729 297.154 762.353 297.154H1111.27C1113.83 297.154 1116.38 296.937 1118.9 296.508L1594.84 215.464Z" stroke="var(--stroke-0, #3B38FF)" stroke-width="21"/>
</g>
<defs>
<filter id="filter0_f_0_625" x="0" y="-4.76837e-06" width="1887" height="666.379" filterUnits="userSpaceOnUse" color-interpolation-filters="sRGB">
<feFlood flood-opacity="0" result="BackgroundImageFix"/>
<feBlend mode="normal" in="SourceGraphic" in2="BackgroundImageFix" result="shape"/>
<feGaussianBlur stdDeviation="102" result="effect1_foregroundBlur_0_625"/>
</filter>
</defs>
</svg>
